assets/icons/qvision/local_airport.svg

<svg xmlns="http://www.w3.org/2000/svg" enable-background="new 0 0 24 24" height="24" viewBox="0 0 24 24" width="24"><g><path d="M22,16v-2l-8.5-5V3.5C13.5,2.67,12.83,2,12,2s-1.5,0.67-1.5,1.5V9L2,14v2l8.5-2.5V19L8,20.5L8,22l4-1l4,1l0-1.5L13.5,19 v-5.5L22,16z"/><path d="M0,0h24v24H0V0z" fill="none"/></g></svg>

<svg width="24" height="24" viewBox="0 0 24 24" fill="none" xmlns="http://www.w3.org/2000/svg">
<g clip-path="url(#clip0_147_5370)">
<path d="M22 16V14L13.5 9V3.5C13.5 2.67 12.83 2 12 2C11.17 2 10.5 2.67 10.5 3.5V9L2 14V16L10.5 13.5V19L8 20.5V22L12 21L16 22V20.5L13.5 19V13.5L22 16Z" fill="#323232"/>
</g>
<defs>
<clipPath id="clip0_147_5370">
<rect width="24" height="24" fill="white"/>
</clipPath>
</defs>
</svg>
